src/img/advantages__cost.svg

<svg width="48" height="48" fill="none" xmlns="http://www.w3.org/2000/svg">
  <path d="M12 0.750061C9.77497 0.750061 7.59989 1.40986 5.74984 2.64603C3.89979 3.88219 2.45785 5.6392 1.60636 7.69487C0.754875 9.75054 0.532087 12.0125 0.966171 14.1948C1.40025 16.3771 2.47171 18.3817 4.04505 19.955C5.61839 21.5284 7.62295 22.5998 9.80524 23.0339C11.9875 23.468 14.2495 23.2452 16.3052 22.3937C18.3609 21.5422 20.1179 20.1003 21.354 18.2502C22.5902 16.4002 23.25 14.2251 23.25 12.0001C23.2466 9.01741 22.0603 6.15789 19.9512 4.04884C17.8422 1.93978 14.9827 0.753436 12 0.750061ZM12 21.7501C10.0716 21.7501 8.18657 21.1782 6.5832 20.1069C4.97982 19.0355 3.73013 17.5128 2.99218 15.7312C2.25423 13.9496 2.06114 11.9892 2.43735 10.0979C2.81355 8.20662 3.74215 6.46933 5.10571 5.10577C6.46928 3.74221 8.20656 2.81361 10.0979 2.4374C11.9892 2.0612 13.9496 2.25428 15.7312 2.99224C17.5127 3.73019 19.0355 4.97987 20.1068 6.58325C21.1782 8.18663 21.75 10.0717 21.75 12.0001C21.7471 14.585 20.7189 17.0633 18.8911 18.8911C17.0632 20.719 14.585 21.7471 12 21.7501Z" fill="#fff"/>
  <path d="M15.75 8.25C15.9489 8.25 16.1397 8.17098 16.2803 8.03033 16.421 7.88968 16.5 7.69891 16.5 7.5 16.5 7.30109 16.421 7.11032 16.2803 6.96967 16.1397 6.82902 15.9489 6.75 15.75 6.75H12.75V6C12.75 5.80109 12.671 5.61032 12.5303 5.46967 12.3897 5.32902 12.1989 5.25 12 5.25 11.8011 5.25 11.6103 5.32902 11.4697 5.46967 11.329 5.61032 11.25 5.80109 11.25 6V6.75H8.25C8.05109 6.75 7.86032 6.82902 7.71967 6.96967 7.57902 7.11032 7.5 7.30109 7.5 7.5V12C7.5 12.1989 7.57902 12.3897 7.71967 12.5303 7.86032 12.671 8.05109 12.75 8.25 12.75H15V15.75H8.25C8.05109 15.75 7.86032 15.829 7.71967 15.9697 7.57902 16.1103 7.5 16.3011 7.5 16.5 7.5 16.6989 7.57902 16.8897 7.71967 17.0303 7.86032 17.171 8.05109 17.25 8.25 17.25H11.25V18C11.25 18.1989 11.329 18.3897 11.4697 18.5303 11.6103 18.671 11.8011 18.75 12 18.75 12.1989 18.75 12.3897 18.671 12.5303 18.5303 12.671 18.3897 12.75 18.1989 12.75 18V17.25H15.75C15.9489 17.25 16.1397 17.171 16.2803 17.0303 16.421 16.8897 16.5 16.6989 16.5 16.5V12C16.5 11.8011 16.421 11.6103 16.2803 11.4697 16.1397 11.329 15.9489 11.25 15.75 11.25H9V8.25H15.75zM21 35.25H16.5V25.5C16.5 25.3011 16.421 25.1103 16.2804 24.9697 16.1397 24.829 15.949 24.75 15.75 24.75H8.25005C8.05114 24.75 7.86037 24.829 7.71972 24.9697 7.57907 25.1103 7.50005 25.3011 7.50005 25.5V35.25H3.00005C2.8566 35.25 2.71616 35.2911 2.59538 35.3685 2.4746 35.4459 2.37855 35.5563 2.31861 35.6866 2.25867 35.8169 2.23737 35.9617 2.25722 36.1038 2.27707 36.2459 2.33725 36.3793 2.43061 36.4882L11.4306 46.9882C11.501 47.0703 11.5884 47.1362 11.6867 47.1814 11.785 47.2267 11.8919 47.2501 12 47.2501 12.1082 47.2501 12.2151 47.2267 12.3134 47.1814 12.4117 47.1362 12.4991 47.0703 12.5695 46.9882L21.5695 36.4882C21.6629 36.3793 21.723 36.2459 21.7429 36.1038 21.7627 35.9617 21.7414 35.8169 21.6815 35.6866 21.6216 35.5563 21.5255 35.4459 21.4047 35.3685 21.2839 35.2911 21.1435 35.25 21 35.25zM12 45.3475L4.63074 36.75H8.25005C8.44896 36.75 8.63973 36.671 8.78038 36.5303 8.92103 36.3897 9.00005 36.1989 9.00005 36V26.25H15V36C15 36.1989 15.0791 36.3897 15.2197 36.5303 15.3604 36.671 15.5511 36.75 15.75 36.75H19.3694L12 45.3475zM36 23.25C38.225 23.25 40.4001 22.5902 42.2502 21.354 44.1002 20.1179 45.5422 18.3609 46.3936 16.3052 47.2451 14.2495 47.4679 11.9875 47.0338 9.80524 46.5998 7.62295 45.5283 5.61839 43.955 4.04505 42.3816 2.47171 40.3771 1.40025 38.1948.966171 36.0125.532087 33.7505.754875 31.6948 1.60636 29.6391 2.45785 27.8821 3.89979 26.646 5.74984 25.4098 7.59989 24.75 9.77497 24.75 12 24.7534 14.9827 25.9397 17.8422 28.0488 19.9512 30.1578 22.0603 33.0174 23.2466 36 23.25zM36 2.25001C37.9284 2.25001 39.8134 2.82183 41.4168 3.89318 43.0202 4.96452 44.2699 6.48726 45.0078 8.26884 45.7458 10.0504 45.9389 12.0108 45.5627 13.9021 45.1865 15.7935 44.2579 17.5307 42.8943 18.8943 41.5307 20.2579 39.7934 21.1865 37.9021 21.5627 36.0108 21.9389 34.0504 21.7458 32.2688 21.0078 30.4873 20.2699 28.9645 19.0202 27.8932 17.4168 26.8218 15.8134 26.25 13.9284 26.25 12 26.2529 9.41504 27.2811 6.93679 29.1089 5.10895 30.9368 3.2811 33.415 2.25293 36 2.25001z" fill="#fff"/>
  <path d="M32.25 15.75C32.0511 15.75 31.8603 15.829 31.7197 15.9697 31.579 16.1103 31.5 16.3011 31.5 16.5 31.5 16.6989 31.579 16.8897 31.7197 17.0303 31.8603 17.171 32.0511 17.25 32.25 17.25H35.25V18C35.25 18.1989 35.329 18.3897 35.4697 18.5303 35.6103 18.671 35.8011 18.75 36 18.75 36.1989 18.75 36.3897 18.671 36.5303 18.5303 36.671 18.3897 36.75 18.1989 36.75 18V17.25H39.75C39.9489 17.25 40.1397 17.171 40.2803 17.0303 40.421 16.8897 40.5 16.6989 40.5 16.5V12C40.5 11.8011 40.421 11.6103 40.2803 11.4697 40.1397 11.329 39.9489 11.25 39.75 11.25H33V8.25H39.75C39.9489 8.25 40.1397 8.17098 40.2803 8.03033 40.421 7.88968 40.5 7.69891 40.5 7.5 40.5 7.30109 40.421 7.11032 40.2803 6.96967 40.1397 6.82902 39.9489 6.75 39.75 6.75H36.75V6C36.75 5.80109 36.671 5.61032 36.5303 5.46967 36.3897 5.32902 36.1989 5.25 36 5.25 35.8011 5.25 35.6103 5.32902 35.4697 5.46967 35.329 5.61032 35.25 5.80109 35.25 6V6.75H32.25C32.0511 6.75 31.8603 6.82902 31.7197 6.96967 31.579 7.11032 31.5 7.30109 31.5 7.5V12C31.5 12.1989 31.579 12.3897 31.7197 12.5303 31.8603 12.671 32.0511 12.75 32.25 12.75H39V15.75H32.25zM45 35.25H40.5V25.5C40.5 25.3011 40.421 25.1103 40.2804 24.9697 40.1397 24.829 39.949 24.75 39.75 24.75H32.25C32.0511 24.75 31.8604 24.829 31.7197 24.9697 31.5791 25.1103 31.5 25.3011 31.5 25.5V35.25H27.0001C26.8566 35.25 26.7162 35.2911 26.5954 35.3685 26.4746 35.4459 26.3785 35.5563 26.3186 35.6866 26.2587 35.8169 26.2374 35.9617 26.2572 36.1038 26.2771 36.2459 26.3372 36.3793 26.4306 36.4882L35.4306 46.9882C35.501 47.0703 35.5884 47.1362 35.6867 47.1814 35.785 47.2267 35.8919 47.2501 36 47.2501 36.1082 47.2501 36.2151 47.2267 36.3134 47.1814 36.4117 47.1362 36.4991 47.0703 36.5695 46.9882L45.5695 36.4882C45.6629 36.3793 45.723 36.2459 45.7429 36.1038 45.7627 35.9617 45.7414 35.8169 45.6815 35.6866 45.6216 35.5563 45.5255 35.4459 45.4047 35.3685 45.2839 35.2911 45.1435 35.25 45 35.25zM36 45.3475L28.6307 36.75H32.25C32.449 36.75 32.6397 36.671 32.7804 36.5303 32.921 36.3897 33 36.1989 33 36V26.25H39V36C39 36.1989 39.0791 36.3897 39.2197 36.5303 39.3604 36.671 39.5511 36.75 39.75 36.75H43.3694L36 45.3475z" fill="#fff"/>
</svg>

<svg width="48" height="48" fill="none" xmlns="http://www.w3.org/2000/svg"><path d="M12 .75A11.25 11.25 0 1023.25 12 11.263 11.263 0 0012 .75zm0 21A9.75 9.75 0 1121.75 12 9.761 9.761 0 0112 21.75z" fill="#fff"/><path d="M15.75 8.25a.75.75 0 100-1.5h-3V6a.75.75 0 10-1.5 0v.75h-3a.75.75 0 00-.75.75V12a.75.75 0 00.75.75H15v3H8.25a.75.75 0 100 1.5h3V18a.75.75 0 101.5 0v-.75h3a.75.75 0 00.75-.75V12a.75.75 0 00-.75-.75H9v-3h6.75zm5.25 27h-4.5V25.5a.75.75 0 00-.75-.75h-7.5a.75.75 0 00-.75.75v9.75H3a.75.75 0 00-.57 1.238l9 10.5a.75.75 0 001.14 0l9-10.5A.75.75 0 0021 35.25zm-9 10.097L4.63 36.75h3.62A.75.75 0 009 36v-9.75h6V36a.75.75 0 00.75.75h3.62L12 45.347zM36 23.25A11.25 11.25 0 1024.75 12 11.262 11.262 0 0036 23.25zm0-21A9.75 9.75 0 1126.25 12 9.761 9.761 0 0136 2.25z" fill="#fff"/><path d="M32.25 15.75a.75.75 0 100 1.5h3V18a.75.75 0 101.5 0v-.75h3a.75.75 0 00.75-.75V12a.75.75 0 00-.75-.75H33v-3h6.75a.75.75 0 100-1.5h-3V6a.75.75 0 10-1.5 0v.75h-3a.75.75 0 00-.75.75V12a.75.75 0 00.75.75H39v3h-6.75zM45 35.25h-4.5V25.5a.75.75 0 00-.75-.75h-7.5a.75.75 0 00-.75.75v9.75H27a.75.75 0 00-.57 1.238l9 10.5a.75.75 0 001.14 0l9-10.5A.75.75 0 0045 35.25zm-9 10.097l-7.37-8.597h3.62A.75.75 0 0033 36v-9.75h6V36a.75.75 0 00.75.75h3.62L36 45.347z" fill="#fff"/></svg>
